X:1
T:Title
%%score { 1 | ( 2 3 ) }
L:1/8
M:3/4
K:F
V:1 treble nm="Grand Piano"
V:2 bass 
V:3 bass 
V:1
 z2 z2[Q:1/4=100] A>A | A3 A GF | B2 A2 F>F | F2 E2 F2 |[M:2/4] [EG]4 |[M:1/4] A>A | %6
[M:3/4] A3 A GF | B2 A2 [DG]>[DG] | F2 A2 [EG]2 |[M:2/4] F4 |[M:1/4] A>A | %11
[M:3/4] [EG]3 [_E^F] [=EG][=FA] | [Ac]2 [GB]2 A>c | d2 c2 A2 |[M:2/4] [EG]4 |[M:1/4] [Ec]>[Ec] | %16
[M:3/4] [Fc]3 [CFA] [CEA][CEG] | [DG]2 [DF]2 [DGB]>[DGB] | [CFA]4 [B,EG]2 |[M:2/4] F4 | %20
[M:1/4] c>c |[M:3/4] d2 c2 [Ec]>[EB] | [EB]4 [EB]>[EB] | [Ec]2 [GB]2 [GB]>A |[M:2/4] A4 | %25
[M:1/4] c>c |[M:3/4] [Fd]3 [Fd] [DFB][Fd] | c2 A2 [CF]>[DFG] | [CFA]3 [CGB] [CFA][B,EG] | %29
[M:2/4] [A,F]4 |] %30
V:2
 z2 z2 [F,CF]>[F,CF] | [F,CF]3 [F,CF] [B,CE][A,C] | [G,CE]2 [F,CF]2 [A,C]>[A,C] | %3
 [G,B,C]4 [F,A,C]2 |[M:2/4] [C,C]4 |[M:1/4] [F,CF]>[F,CF] |[M:3/4] [F,CF]3 [F,CF] [B,CE][A,C] | %7
 [G,CE]2 [F,CF]2 [B,,B,]>[B,,B,] | [A,C]2 z2 z2 |[M:2/4] [F,A,]4 |[M:1/4] [F,CF]>[F,CF] | %11
[M:3/4] [C,C]3 [C,C] [C,C][C,C] | [C,C]2 [C,C]2 [F,CF]>[F,A,F] | B,2 A,2 [F,CF]2 |[M:2/4] [C,C]4 | %15
[M:1/4] [C,B,]>[C,B,] |[M:3/4] [F,A,]3 F, A,,A,, | B,,2 B,,2 B,,>B,, | C,4 C,2 |[M:2/4] [F,A,]4 | %20
[M:1/4] [F,A,F]>[F,A,F] |[M:3/4] [F,B,F]2 [F,A,F]2 [C,G,]>[C,G,] | [C,G,]4 [C,G,]>[C,G,] | %23
 [C,G,]2 [C,C]2 [F,C]>[F,CF] |[M:2/4] [F,CF]4 |[M:1/4] [F,A,F]>[F,A,F] | %26
[M:3/4] [B,,B,]3 [B,,B,] B,,[B,,B,] | A,2 z2 z2 | C,3 C, C,C, |[M:2/4] F,4 |] %30
V:3
 x6 | x6 | x6 | x6 |[M:2/4] x4 |[M:1/4] x2 |[M:3/4] x6 | x6 | C,2- [C,CF]2 [C,B,]2 |[M:2/4] x4 | %10
[M:1/4] x2 |[M:3/4] x6 | x6 | [F,F]4 z2 |[M:2/4] x4 |[M:1/4] x2 |[M:3/4] x6 | x6 | x6 |[M:2/4] x4 | %20
[M:1/4] x2 |[M:3/4] x6 | x6 | x6 |[M:2/4] x4 |[M:1/4] x2 |[M:3/4] x6 | [F,F]2- [F,CF]2 A,,>B,, | %28
 x6 |[M:2/4] x4 |] %30

